X:1
T:Noi siam due luci
T:Benedetto Ferrari
T:Source : Musiche Varie a voce sola---Libro terzo---Venetia---B.Magni---1641. Editor : André Vierendeels (07/01/17).
T:Notes : Original clefs : C4, F4 Original note values have been halved Figures in BC are notated in original print
T:Noi siam due luci
T:©
T:©
T:©
C:Benedetto Ferrari
Z:©
%%score 1 2
L:1/8
Q:1/4=101
M:6/4
K:F
V:1 treble-8 nm="Tenor" snm="T"
V:2 bass nm="MusicXML Part"
V:1
 z2 z2 f2 d3 _efg | _e2 c2 d2 G3 ABc | A2 F2 f2 g3 f_ed | _e4 fe d4 z2 | z c/d/ _e3 e d4 dc | %5
w: Noi siam due lu- ci|chia- re mor- ta- li si ma|bel- le chi ci vien' à mi-|ra- * te _|t'au- * * vi- ci- n'à le|
w: Noi siam due mam- me|in- tat- te ven- g'à sol car-|ne on co- re le no- str'on-|de di lat- te,|gui _ da- no'al ciel d'a- *|
w: Co- si di bel- la|Da- ma fa- vel- la- no gli|o- gnet- ti co- si con que-|sta tra- * ma|ca- * don i sem- pli- *|
 c4 c2- B6 :: F2 GA B2 B2 cd _e2 | _e2 d2 z d B4 BA | A4 A2 z2 c2 c2 | c4 c=B c2 G4- | %10
w: stel- le, _|ah _ _ _ ah _ _ _|_ _ guar- da te- ni'a-|man- ti sem- pre|fau- sti nel son gi-|
w: mo- re, _|ah _ _ _ ah _ _ _|_ _ guar- da- te- vi'A-|man- ti non si|va in _ ciel, se|
w: cet- ti, _|ah _ _ _ ah _ _ _|_ _ che son ben io|scal- tro se lor|par- lan- do'à un mo-|
 G2 G4- G2 G4 | G6 F2 f2 g2 | _e3 f e2 d2 c4- | c2 c4- c2 c4 | c6 B6 :| %15
w: * ri _ stel-|lan- ti, sem- pre|fau- sti non son gi-|* ri _ stel-|lan- ti.|
w: _ non _ si|mo- re, non si|va'in ciel, se non si|_ mo- * re'a-|man- ti.|
w: * do, _ io'n-|ten- do, se lor|par- lan- do'à un mo-|* do, _ io'n-|ten- do.|
V:2
"^BC" z2 z2 B,2 B,6 | G,2 A,2 F,2 G,2 E,4 | F,2 D,4 _E,4 F,2 | G,2 A,4 B,A, G,F, _E,D, | %4
 C,6 D,2 _E,4 | F,2 F,,4 B,,6 :: B,,4 C,D, _E,4 F,G, |"^7 6" _A,6 G,6 | F,6 E,6 | D,6 C,2 D,2 E,2 | %10
"^5" F,2 B,,2 C,2 D,2 A,,2 B,,2 | C,6 F,6 | G,2 A,4 B,2 F,2 G,2 | A,2 E,2 F,2 G,2 D,2 _E,2 | %14
 F,6 B,,6 :| %15

